svgs/light/square-up-left.svg

<svg xmlns="http://www.w3.org/2000/svg" viewBox="0 0 448 512"><!--! Font Awesome Pro 6.3.0 by @fontawesome - https://fontawesome.com License - https://fontawesome.com/license (Commercial License) Copyright 2023 Fonticons, Inc. --><path d="M0 96v320c0 35.35 28.65 64 64 64h320c35.35 0 64-28.65 64-64V96c0-35.35-28.65-64-64-64H64C28.65 32 0 60.65 0 96zM384 64c17.64 0 32 14.36 32 32v320c0 17.64-14.36 32-32 32H64c-17.64 0-32-14.36-32-32V96c0-17.64 14.36-32 32-32H384zM150.5 142.5c-21.39 0-40.01 18.33-39.98 40.27l2.331 133.1c.011 16.23 9.701 30.74 24.68 36.97c15 6.209 32.11 2.806 43.6-8.684l20.29-20.29l50.91 50.91c15.6 15.6 40.97 15.6 56.57 0l33.94-33.94c15.6-15.6 15.6-40.97 0-56.57l-50.91-50.91l20.29-20.29c11.49-11.49 14.89-28.59 8.684-43.6c-6.198-14.95-20.64-24.62-36.8-24.69L150.5 142.5zM289.5 190.5l-42.91 42.91l73.54 73.54c3.116 3.116 3.116 8.199 .0003 11.31l-33.94 33.94c-3.116 3.116-8.198 3.114-11.31-.0013L201.4 278.6l-42.91 42.91c-4.536 4.536-13.65 2.268-13.67-5.933L142.5 182.5c-.0307-5.916 5.47-8.01 7.723-8.01l133.4 2.342C290.5 176.8 294.8 185.2 289.5 190.5z"/></svg>

<svg xmlns="http://www.w3.org/2000/svg" viewBox="0 0 448 512"><!-- Font Awesome Pro 6.0.0-alpha2 by @fontawesome - https://fontawesome.com License - https://fontawesome.com/license (Commercial License) --><path d="M0 96V416C0 451.346 28.654 480 64 480H384C419.346 480 448 451.346 448 416V96C448 60.654 419.346 32 384 32H64C28.654 32 0 60.654 0 96ZM384 64C401.645 64 416 78.355 416 96V416C416 433.645 401.645 448 384 448H64C46.355 448 32 433.645 32 416V96C32 78.355 46.355 64 64 64H384ZM150.461 142.465C129.071 142.465 110.454 160.795 110.476 182.737L112.807 315.883C112.819 332.113 122.508 346.62 137.49 352.852C152.494 359.061 169.597 355.658 181.087 344.167L201.373 323.882L252.284 374.794C267.885 390.394 293.252 390.394 308.853 374.794L342.794 340.853C358.394 325.252 358.394 299.885 342.794 284.284L291.882 233.373L312.167 213.087C323.658 201.597 327.061 184.494 320.852 169.49C314.653 154.541 300.213 144.874 284.049 144.796L150.461 142.465ZM289.54 190.46L246.627 233.373L320.167 306.912C323.282 310.027 323.282 315.11 320.167 318.225L286.225 352.167C283.11 355.282 278.027 355.282 274.912 352.167L201.373 278.627L158.46 321.54C153.925 326.075 144.811 323.808 144.793 315.607L142.462 182.461C142.431 176.545 147.932 174.451 150.185 174.451L283.607 176.793L283.883 176.804C290.743 176.804 294.796 185.204 289.54 190.46Z"/></svg>
